icons/yarn.svg

<svg id="Layer_1" xmlns="http://www.w3.org/2000/svg" viewBox="0 0 518 518"><style>.st0{fill:#2c8ebb}.st1{fill:#fff}</style><path class="st0" d="M259 0c143 0 259 116 259 259S402 518 259 518 0 402 0 259 116 0 259 0z"/><path class="st1" d="M435.2 337.5c-1.8-14.2-13.8-24-29.2-23.8-23 .3-42.3 12.2-55.1 20.1-5 3.1-9.3 5.4-13 7.1.8-11.6.1-26.8-5.9-43.5-7.3-20-17.1-32.3-24.1-39.4 8.1-11.8 19.2-29 24.4-55.6 4.5-22.7 3.1-58-7.2-77.8-2.1-4-5.6-6.9-10-8.1-1.8-.5-5.2-1.5-11.9.4C293.1 96 289.6 93.8 286.9 92c-5.6-3.6-12.2-4.4-18.4-2.1-8.3 3-15.4 11-22.1 25.2-1 2.1-1.9 4.1-2.7 6.1-12.7.9-32.7 5.5-49.6 23.8-2.1 2.3-6.2 4-10.5 5.6h.1c-8.8 3.1-12.8 10.3-17.7 23.3-6.8 18.2.2 36.1 7.1 47.7-9.4 8.4-21.9 21.8-28.5 37.5-8.2 19.4-9.1 38.4-8.8 48.7-7 7.4-17.8 21.3-19 36.9-1.6 21.8 6.3 36.6 9.8 42 1 1.6 2.1 2.9 3.3 4.2-.4 2.7-.5 5.6.1 8.6 1.3 7 5.7 12.7 12.4 16.3 13.2 7 31.6 10 45.8 2.9 5.1 5.4 14.4 10.6 31.3 10.6h1c4.3 0 58.9-2.9 74.8-6.8 7.1-1.7 12-4.7 15.2-7.4 10.2-3.2 38.4-12.8 65-30 18.8-12.2 25.3-14.8 39.3-18.2 13.6-3.3 22.1-15.7 20.4-29.4zm-23.8 14.7c-16 3.8-24.1 7.3-43.9 20.2-30.9 20-64.7 29.3-64.7 29.3s-2.8 4.2-10.9 6.1c-14 3.4-66.7 6.3-71.5 6.4-12.9.1-20.8-3.3-23-8.6-6.7-16 9.6-23 9.6-23s-3.6-2.2-5.7-4.2c-1.9-1.9-3.9-5.7-4.5-4.3-2.5 6.1-3.8 21-10.5 27.7-9.2 9.3-26.6 6.2-36.9.8-11.3-6 .8-20.1.8-20.1s-6.1 3.6-11-3.8c-4.4-6.8-8.5-18.4-7.4-32.7 1.2-16.3 19.4-32.1 19.4-32.1s-3.2-24.1 7.3-48.8c9.5-22.5 35.1-40.6 35.1-40.6s-21.5-23.8-13.5-45.2c5.2-14 7.3-13.9 9-14.5 6-2.3 11.8-4.8 16.1-9.5 21.5-23.2 48.9-18.8 48.9-18.8s13-39.5 25-31.8c3.7 2.4 17 32 17 32s14.2-8.3 15.8-5.2c8.6 16.7 9.6 48.6 5.8 68-6.4 32-22.4 49.2-28.8 60-1.5 2.5 17.2 10.4 29 43.1 10.9 29.9 1.2 55 2.9 57.8.3.5.4.7.4.7s12.5 1 37.6-14.5c13.4-8.3 29.3-17.6 47.4-17.8 17.5-.3 18.4 20.2 5.2 23.4z"/></svg>

<?xml version="1.0" encoding="UTF-8"?>
<svg width="518px" height="518px" viewBox="0 0 518 518" version="1.1" xmlns="http://www.w3.org/2000/svg" xmlns:xlink="http://www.w3.org/1999/xlink">
    <!-- Generator: Sketch 56.2 (81672) - https://sketch.com -->
    <title>yarn</title>
    <desc>Created with Sketch.</desc>
    <g id="Page-1" stroke="none" stroke-width="1" fill="none" fill-rule="evenodd">
        <g id="yarn" fill-rule="nonzero">
            <path d="M259,0 C402,0 518,116 518,259 C518,402 402,518 259,518 C116,518 0,402 0,259 C0,116 116,0 259,0 Z" id="Path" fill="#2C8EBB"></path>
            <path d="M435.2,337.5 C433.4,323.3 421.4,313.5 406,313.7 C383,314 363.7,325.9 350.9,333.8 C345.9,336.9 341.6,339.2 337.9,340.9 C338.7,329.3 338,314.1 332,297.4 C324.7,277.4 314.9,265.1 307.9,258 C316,246.2 327.1,229 332.3,202.4 C336.8,179.7 335.4,144.4 325.1,124.6 C323,120.6 319.5,117.7 315.1,116.5 C313.3,116 309.9,115 303.2,116.9 C293.1,96 289.6,93.8 286.9,92 C281.3,88.4 274.7,87.6 268.5,89.9 C260.2,92.9 253.1,100.9 246.4,115.1 C245.4,117.2 244.5,119.2 243.7,121.2 C231,122.1 211,126.7 194.1,145 C192,147.3 187.9,149 183.6,150.6 L183.7,150.6 C174.9,153.7 170.9,160.9 166,173.9 C159.2,192.1 166.2,210 173.1,221.6 C163.7,230 151.2,243.4 144.6,259.1 C136.4,278.5 135.5,297.5 135.8,307.8 C128.8,315.2 118,329.1 116.8,344.7 C115.2,366.5 123.1,381.3 126.6,386.7 C127.6,388.3 128.7,389.6 129.9,390.9 C129.5,393.6 129.4,396.5 130,399.5 C131.3,406.5 135.7,412.2 142.4,415.8 C155.6,422.8 174,425.8 188.2,418.7 C193.3,424.1 202.6,429.3 219.5,429.3 L220.5,429.3 C224.8,429.3 279.4,426.4 295.3,422.5 C302.4,420.8 307.3,417.8 310.5,415.1 C320.7,411.9 348.9,402.3 375.5,385.1 C394.3,372.9 400.8,370.3 414.8,366.9 C428.4,363.6 436.9,351.2 435.2,337.5 L435.2,337.5 Z M411.4,352.2 C395.4,356 387.3,359.5 367.5,372.4 C336.6,392.4 302.8,401.7 302.8,401.7 C302.8,401.7 300,405.9 291.9,407.8 C277.9,411.2 225.2,414.1 220.4,414.202148 C207.5,414.3 199.6,410.9 197.4,405.6 C190.7,389.6 207,382.6 207,382.6 C207,382.6 203.4,380.4 201.3,378.4 C199.4,376.5 197.4,372.7 196.8,374.1 C194.3,380.2 193,395.1 186.3,401.8 C177.1,411.1 159.7,408 149.4,402.6 C138.1,396.6 150.2,382.5 150.2,382.5 C150.2,382.5 144.1,386.1 139.2,378.7 C134.8,371.9 130.7,360.3 131.8,346 C133,329.7 151.2,313.9 151.2,313.9 C151.2,313.9 148,289.8 158.5,265.1 C168,242.6 193.6,224.5 193.6,224.5 C193.6,224.5 172.1,200.7 180.1,179.3 C185.3,165.3 187.4,165.4 189.1,164.8 C195.1,162.5 200.9,160 205.2,155.3 C226.7,132.1 254.1,136.5 254.1,136.5 C254.1,136.5 267.1,97 279.1,104.7 C282.8,107.1 296.1,136.7 296.1,136.7 C296.1,136.7 310.3,128.4 311.9,131.5 C320.5,148.2 321.5,180.1 317.7,199.5 C311.3,231.5 295.3,248.7 288.9,259.5 C287.4,262 306.1,269.9 317.9,302.6 C328.8,332.5 319.1,357.6 320.8,360.4 C321.1,360.9 321.2,361.1 321.2,361.1 C321.2,361.1 333.7,362.1 358.8,346.6 C372.2,338.3 388.1,329 406.2,328.8 C423.7,328.5 424.6,349 411.4,352.2 L411.4,352.2 Z" id="Shape" fill="#FFFFFF"></path>
        </g>
    </g>
</svg>
